X:1
T: Miss Gordon of Cairnfield's Reel
C:William Marshall
R:Reel
Q: 232
K:Bb
M:4/4
L:1/8
|:E|D2 B,D FD BF|DB, FD EC CE|D2 B,D FD BF|ec dA BB, B,E|
D2 B,D FD BF|DB, FD EC CE|D2 B,D FD BF|ec dA BB, B,e|
de fd ge fd|ec dB ec ce|de fd ge fd|ga bf dB Be|
de fd ge fd|ec dB ec ce|DB, FD GE BG|FD GE DB, B,:|
